X: 13
T: The First No\"el v.2
P: piffero primo c0015
O: French
%R: waltz
F: http://ancients.sudburymuster.org/mus/col/pdf/carolsF.pdf
Z: 2020 John Chambers <jc:trillian.mit.edu>
M: 3/4
L: 1/8
K: G
% - - - - - - - - - -
A2 |\
F2D2cB | A2A2G2 | F4Bc | d2c2B2 | A4Bc | d4A2 | DEFGAc | d2A2G2 |
F2D2cB | A2A2G2 | F4Bc | d2c2B2 | A4Bc | d4A2 | DEFGAc | d2A2 ||
A2 |\
F2D2cB | A2AGF2 | GABcde | f2d2c2 | B2A2G2 | F2G2E2 | DEFGAc | d4 |]
%% - - - - - - - - - -


